X: 772
M: 6/4
L: 1/4
K: D
|: d |\
c2d e2c | d>ec B2A |
c2d e2E | G>AF E2D |\
c2d e2c | d>ec B2A |\

